X: 244
T: The top of Cork road
C: anon.
O: Ireland
B: Francis O'Neill: "The Dance Music of Ireland" (1907) no. 244
R: Double jig
Z: Transcribed by Frank Nordberg - http://www.musicaviva.com
F: http://www.musicaviva.com/abc/tunes/ireland/oneill-1001/oneill-1001-024
4.abc
M: 6/8
L: 1/8
K: D
(f/e/)|dAF DFA|Bed cBA|dcd efg|aed cBA|dAF DFA|Bed cBA|dcd efg|fdd d2:|
|:g|fdf fga|ecd fed|cAA A2c|BGB Bcd|AFA DFA|dcd efg|fdd d2:|
W:
W:
W: From Musica Viva - http://www.musicaviva.com
W: the Internet center for free sheet music downloads.


